Papirus/64x64/apps/aqemu.svg

<svg width="64" height="64" version="1.1" xmlns="http://www.w3.org/2000/svg">
 <circle cx="32" cy="33" r="28" style="opacity:.2"/>
 <circle cx="31.999998" cy="32" r="28" style="fill:#2f6fce"/>
 <path d="M 32,4 A 28,28 0 0 0 4,32 28,28 0 0 0 4.0215,32.586 28,28 0 0 1 32,5 28,28 0 0 1 59.979,32.414 28,28 0 0 0 60,32 28,28 0 0 0 32,4 Z" style="fill:#ffffff;opacity:.2"/>
 <path d="m31 13a19 19 0 0 0-14.175782 6.382812 2.0002 2.0002 0 0 0-0.574218 0.652344 19 19 0 0 0-4.25 11.964844 19 19 0 0 0 19 19 19 19 0 0 0 11.933594-4.238282l3.652344 3.652344 2.828124-2.828124-3.64453-3.644532a19 19 0 0 0 4.117186-10.0625 2.0002 2.0002 0 0 0 0.09766-1.449218 19 19 0 0 0 0.01562-0.429688 19 19 0 0 0-19-19zm0 4a15 15 0 0 1 14.847656 12.984376l-24.226562-9.6875a15 15 0 0 1 9.378906-3.296876zm-13.121094 7.738282 13.101562 22.261718a15 15 0 0 1-14.980468-15 15 15 0 0 1 1.878906-7.261718zm4.8125 0.289062 10.324218 4.128906-4.968748 4.96875zm14.363282 5.746094 8.753906 3.5a15 15 0 0 1-2.894532 6.8125l-1.5-1.5-2.828124 2.828124 1.503906 1.503906a15 15 0 0 1-4.835938 2.457032l-5.113282-8.6875z" style="opacity:.2"/>
 <path d="m31 12a19 19 0 0 0-19 19 19 19 0 0 0 19 19 19 19 0 0 0 19-19 19 19 0 0 0-19-19zm0 4a15 15 0 0 1 15 15 15 15 0 0 1-15 15 15 15 0 0 1-15-15 15 15 0 0 1 15-15z" style="fill:#89b9e2"/>
 <path d="M 34,47.18644 18,20 48,32" style="fill:none;stroke-linecap:round;stroke-linejoin:round;stroke-width:4;stroke:#89b9e2"/>
 <path d="m28 36 8-8" style="fill:none;stroke-linecap:round;stroke-linejoin:round;stroke-width:4;stroke:#89b9e2"/>
 <path d="m40 40 8 8" style="fill:none;stroke-width:4;stroke:#89b9e2"/>
</svg>

<?xml version="1.0" encoding="UTF-8" standalone="no"?>
<svg
   id="_图层_1"
   version="1.1"
   viewBox="0 0 64 64" width="64" height="64"
   sodipodi:docname="aqemu.svg"
   xml:space="preserve"
   inkscape:version="1.4 (e7c3feb100, 2024-10-09)"
   xmlns:inkscape="http://www.inkscape.org/namespaces/inkscape"
   xmlns:sodipodi="http://sodipodi.sourceforge.net/DTD/sodipodi-0.dtd"
   xmlns="http://www.w3.org/2000/svg"
   xmlns:svg="http://www.w3.org/2000/svg"><sodipodi:namedview
     id="namedview26"
     pagecolor="#505050"
     bordercolor="#eeeeee"
     borderopacity="1"
     inkscape:showpageshadow="0"
     inkscape:pageopacity="0"
     inkscape:pagecheckerboard="0"
     inkscape:deskcolor="#505050"
     inkscape:zoom="10.6875"
     inkscape:cx="44.25731"
     inkscape:cy="39.48538"
     inkscape:window-width="1920"
     inkscape:window-height="939"
     inkscape:window-x="0"
     inkscape:window-y="34"
     inkscape:window-maximized="1"
     inkscape:current-layer="_图层_1" /><!-- Generator: Adobe Illustrator 29.0.1, SVG Export Plug-In . SVG Version: 2.1.0 Build 192)  --><defs
     id="defs6"><inkscape:path-effect
       effect="fillet_chamfer"
       id="path-effect26"
       is_visible="true"
       lpeversion="1"
       nodesatellites_param="F,0,0,1,0,0,0,1 @ F,0,0,1,0,0,0,1 @ F,0,0,1,0,0,0,1 @ F,0,0,1,0,0,0,1 @ F,0,0,1,0,0,0,1 @ F,0,0,1,0,0,0,1"
       radius="0"
       unit="px"
       method="auto"
       mode="F"
       chamfer_steps="1"
       flexible="false"
       use_knot_distance="true"
       apply_no_radius="true"
       apply_with_radius="true"
       only_selected="false"
       hide_knots="false" /><style
       id="style1">
      .st0 {
        fill-opacity: .5;
      }

      .st0, .st1, .st2, .st3, .st4, .st5, .st6, .st7 {
        fill: #fff;
      }

      .st8 {
        fill: #133c9a;
      }

      .st2, .st9 {
        display: none;
      }

      .st3 {
        fill-opacity: .2;
      }

      .st4 {
        fill-opacity: .9;
      }

      .st10 {
        fill: #3370ff;
      }

      .st11 {
        fill: url(#_未命名的渐变_3);
      }

      .st12 {
        fill: url(#_未命名的渐变);
      }

      .st5 {
        fill-opacity: .3;
      }

      .st6 {
        fill-opacity: 0;
      }

      .st7 {
        fill-opacity: .7;
      }

      .st13 {
        fill: #00d6b9;
      }

      .st14 {
        fill: url(#_未命名的渐变_2);
      }
    </style><radialGradient
       id="_未命名的渐变"
       data-name="未命名的渐变"
       cx="123.9"
       cy="-40.2"
       fx="123.9"
       fy="-40.2"
       r="59.4"
       gradientTransform="translate(-26.8 25.5) scale(.6 -.7)"
       gradientUnits="userSpaceOnUse"><stop
         offset="0"
         stop-color="#db202e"
         id="stop1" /><stop
         offset="1"
         stop-color="#e01b24"
         id="stop2" /></radialGradient><radialGradient
       id="_未命名的渐变_2"
       data-name="未命名的渐变 2"
       cx="67.6"
       cy="26.8"
       fx="67.6"
       fy="26.8"
       r="105.2"
       gradientTransform="translate(-26.6 25.3) scale(.6 -.7)"
       gradientUnits="userSpaceOnUse"><stop
         offset="0"
         stop-color="#ffb648"
         id="stop3" /><stop
         offset="1"
         stop-color="#ff7800"
         stop-opacity="0"
         id="stop4" /></radialGradient><radialGradient
       id="_未命名的渐变_3"
       data-name="未命名的渐变 3"
       cx="61.7"
       cy="18.6"
       fx="61.7"
       fy="18.6"
       r="68"
       gradientTransform="translate(-26.8 25.8) scale(.6 -.7)"
       gradientUnits="userSpaceOnUse"><stop
         offset="0"
         stop-color="#c64600"
         id="stop5" /><stop
         offset="1"
         stop-color="#a51d2d"
         id="stop6" /></radialGradient></defs><path
     class="st1"
     d="M 47.5,64.1 H 13.8 C 6.2,64.1 0,57.8 0,50.3 V 13.7 C 0,6.2 6.2,0 13.7,0 H 50.3 C 57.8,0 64,6.2 64,13.7 V 50.3 C 64,57.8 57.8,64 50.3,64 h -2.9 0.1 z"
     id="path6"
     style="display:inline;fill:#2f6fce;fill-opacity:1" /><g
     id="g26"
     transform="matrix(1.1436926,0,0,1.1411716,-4.574769,-4.4331077)"><path
       d="M 31,13 A 19,19 0 0 0 16.824218,19.382812 2.0002,2.0002 0 0 0 16.25,20.035156 19,19 0 0 0 12,32 19,19 0 0 0 31,51 19,19 0 0 0 42.933594,46.761718 l 3.652344,3.652344 2.828124,-2.828124 -3.64453,-3.644532 a 19,19 0 0 0 4.117186,-10.0625 2.0002,2.0002 0 0 0 0.09766,-1.449218 A 19,19 0 0 0 49.999998,32 a 19,19 0 0 0 -19,-19 z m 0,4 a 15,15 0 0 1 14.847656,12.984376 l -24.226562,-9.6875 A 15,15 0 0 1 31,17 Z M 17.878906,24.738282 30.980468,47 A 15,15 0 0 1 16,32 15,15 0 0 1 17.878906,24.738282 Z m 4.8125,0.289062 10.324218,4.128906 -4.968748,4.96875 z m 14.363282,5.746094 8.753906,3.5 a 15,15 0 0 1 -2.894532,6.8125 l -1.5,-1.5 -2.828124,2.828124 1.503906,1.503906 A 15,15 0 0 1 35.253906,46.375 l -5.113282,-8.6875 z"
       style="opacity:0.2"
       id="path3" /><path
       d="M 31,12 A 19,19 0 0 0 12,31 19,19 0 0 0 31,50 19,19 0 0 0 50,31 19,19 0 0 0 31,12 Z m 0,4 A 15,15 0 0 1 46,31 15,15 0 0 1 31,46 15,15 0 0 1 16,31 15,15 0 0 1 31,16 Z"
       style="fill:#89b9e2"
       id="path4" /><path
       d="M 34,47.18644 18,20 48,32"
       style="fill:none;stroke:#89b9e2;stroke-width:4;stroke-linecap:round;stroke-linejoin:round"
       id="path5" /><path
       d="m 28,36 8,-8"
       style="fill:none;stroke:#89b9e2;stroke-width:4;stroke-linecap:round;stroke-linejoin:round"
       id="path6-7" /><path
       d="m 40,40 8,8"
       style="fill:none;stroke:#89b9e2;stroke-width:4"
       id="path7" /></g></svg>
